X: 14509
T: Gan Ainm
R: jig
M: 6/8
K: Dmajor
|:DdD cDB|DAB AGF|EFD E2E|(3FGAF GFE|
DdD cDB|DAB AGF|G2G GAB|1 A2F GFE:|2 A2F GFG||
|:ABF A2A|ABF EFD|DBB BAG|B2B BdB|
ABA dAd|eAe f2f|g2g gef|ged c2B:|

